X:1
T:James Gibb editions
T:Singet dem Herren ein neues Lied, SWV 342 - Schütz
T:#
%%score [ 1 2 ] 3 4
L:1/8
Q:1/4=200
M:3/2
K:F
V:1 treble nm="Violin I" snm="Vn I"
V:2 treble nm="Violin II" snm="Vn II"
V:3 treble nm="Soprano" snm="S"
V:4 bass nm="Continuo"
V:1
"^Heinrich Schütz\n(1585-1672)""^Singet dem Herren ein neues Lied, SWV 342""^Psalm 96:1-4" z12 | %1
 z12 | G12 | G12 | z12 | z4 G4 G4 | G12 | G12 | z12 | z12 | z12 | d4 G4 A4 | B6 A2 G4 | %13
 A2 B2 c2 B2 A4 | G12 | z12 | z12 | B12 | B8 z4 | z4 B4 B4 | B12 | B8 z4 | z12 | z12 | z12 | %25
 f4 f4 g4 | a8 f4 | g6 f2 _e4 | f6 _e2 d4 | _e6 d2 c4 | d4 c8 | B8 z4 | z12 | g4 g4 a4 | b8 g4 | %35
 a6 g2 f4 | g6 f2 e4 | f4 e8 | f4 f4 g4 | a8 f4 | g6 f2 _e4 | f6 =e2 d4 | e6 d2 c4 | g4 ^f8 | %44
 g4 b4 g4 | a6 g2 f4 | d4 d8 | d12 ||[M:4/4][Q:1/4=100] z8 | %49
[M:4/4][Q:1/4=100][Q:1/4=100][Q:1/4=100][Q:1/4=100] z8 | z8 | z8 | z2 a2- a/f/g/e/ f/d/e/c/ | %53
 d/A/B/c/ d/e/f/g/ f2 ed | ceef g2 a2 | g4 f4 | z8 | z/ G/A/=B/ c/d/e/f/ g2 fe | d2 z2 z4 | %59
 z/ A/=B/c/ d/e/f/g/ a2 gf | e4 z e ef | g3 f e4 | d4 z f fg | a2 g2 g3 ^f | g8 || %65
[M:3/2][Q:1/4=200] z12 | z12 | z12 | z4 g6 e2 | %69
[M:3/2][Q:1/4=200][Q:1/4=200][Q:1/4=200][Q:1/4=200] c4 f6 d2 | B2 B2 _e4 c4 | d2 d2 z4 z4 | %72
 c2 c2 f4 d4 | e2 e2 z4 z4 | d2 d2 g4 e4 | ^f2 f2 z4 z4 | z4 g2 g2 c'4 | a4 b2 b2 f2 f2 | %78
 g4 f4 f2 f2 ||[M:4/4][Q:1/4=100] z2 aa b2 g2 | a4 g2 g2- | %81
[M:4/4][Q:1/4=100][Q:1/4=100][Q:1/4=100][Q:1/4=100] g2 ^fe f4 | g8 || z8 | z8 | z8 | z8 | z8 | z8 | %89
 z8 | z8 | z8 | z8 | g6 g2 | g3 a b4- | b2 c'2 b4 | a6 d2 | g2 z2 z2 =B2 | e2 f4 e2 | f4 FAAc | %100
 e4 geec | c4 cAAF | F4 fddB | B4 g_eec | =B2 c4 B2 | c4 _BBcc | d2 z2 ccdd | e2 z2 ddee | %108
 f2 z2 eeff | g2 z f gf e2 | d2 z e fe d2 | c2 z2 z4 | z8 | ^ffgg a2 z f | ag ^f2 g2 z2 | z8 | %116
 gg_ee ffdd | _edcc Bcdd | ^c2 dd =BB=cc | AAbb ggaa | ffgf _ed c2 | B2 z2 ffdd | _eecc z4 | %123
 z2 aa gf e2 | d2 z2 z4 | dd=BB eecc | z4 ccAA | ddBB z4 | z4 aa^ff | bbgg z4 | z4 _eecc | %131
 ddBB aaff | bagg g2 ^f2 | ggdd ggdd | %134
[Q:1/4=99] z8[Q:1/4=98][Q:1/4=97][Q:1/4=96][Q:1/4=95][Q:1/4=94][Q:1/4=93][Q:1/4=92] | %135
[Q:1/4=91] g[Q:1/4=90]f[Q:1/4=89]_e[Q:1/4=88]g[Q:1/4=86] g4 |[Q:1/4=85] !fermata!g16 |] %137
V:2
 z12 | z12 | D12 | D12 | z12 | z4 D4 D4 | D12 | D12 | z12 | z12 | z12 | G4 B4 A4 | D8 G4 | G8 ^F4 | %14
 G12 | z12 | z12 | G12 | G8 z4 | z12 | z4 G4 G4 | G12 | G8 z4 | A4 A4 B4 | c8 A4 | B6 A2 G4 | %26
 F4 c4 d4 | _e6 d2 c4 | d6 c2 B4 | G6 F2 _E4 | F8 z4 | f4 f4 g4 | a8 f4 | g6 f2 _e4 | f6 e2 d4 | %35
 e6 d2 c4 | d6 c2 B4 | c4 c8 | c8 z4 | z12 | g4 g4 a4 | b8 g4 | a6 g2 f4 | d4 d8 | d4 g4 d4 | %45
 f6 e2 d4 | g4 ^f8 | g12 ||[M:4/4] z8 |[M:4/4] z8 | z8 | z4 z2 a2- | %52
 a/f/g/e/ f/d/e/c/ d/A/B/c/ d/e/f/g/ | f2 ed cagf | eccd e2 f2 | f3 e f4 | z8 | %57
 z/ E/F/G/ A/=B/c/d/ e2 dc | =B2 z2 z4 | z/ ^F/G/A/ B/c/d/e/ !courtesy!=f2 ed | ^c4 z =c cd | %61
 e2 d2 a4 | affg a2 d2 | _e2 e2 d4 | d8 ||[M:3/2] z12 | z12 | z4 z4 d4- | d2 =B2 G4 c4- | %69
[M:3/2] c2 A2 F4 B4 | G2 G2 c4 A4 | B2 B2 z4 z4 | A2 A2 d4 =B4 | c2 c2 z4 z4 | =B2 B2 e4 ^c4 | %75
 d2 d2 z4 d2 d2 | g4 e4 f2 f2 | z4 z4 B2 B2 | B4 A4 B2 B2 ||[M:4/4] z2 ff f2 _e2 | _e6 e2 | %81
[M:4/4] d8 | d8 || z8 | z8 | z8 | z8 | z8 | z8 | z8 | z8 | z8 | z8 | B6 Bc | d6 e^f | %95
 g2 =f_e d3 =e | ^f8 | z2 e2 a2 z2 | z2 d2 g4 | a8 | z4 eccA | A4 z4 | fddB B4 | bgg_e e4 | %104
 d3 c d4 | G4 GGAA | B2 z2 AA=BB | c2 z2 =BBcc | d2 z2 ^ccdd | e2 z c ed c2 | d2 z c dc B2 | %111
 A2 z2 z4 | ee^ff g2 z2 | AAdd ^c2 z d | _ee d2 d2 z2 | z8 | z4 aaff | ggff defg | e2 d2 z4 | %119
 aaff gg_ee | dd=BB ccAA | bbgg aaff | z4 ddBB | ccAA z2 aa | ^ff=bb gg z2 | z8 | ggee aaff | %127
 z4 aa^ff | bbgg z4 | z4 ggee | ffdd z4 | z2 _ee ccff | d2 d2 d4 | dd=BB ddBB | z8 | _edcd e4 | %136
 !fermata!d16 |] %137
V:3
"^Presto" G12 | G12 | z12 | z4 G4 G4 | G12 | G8 z4 | z12 | z12 | d4 G4 A4 | B6 A2 G4 | %10
w: Sin-|get,||sin- get,|sin-|get,|||sin- get dem|Her- ren ein|
 (A2 G2 ^F2 E2) F4 | G8 z4 | z12 | z12 | z12 | B12 | B12 | z12 | z4 B4 B4 | B12 | B8 z4 | z12 | %22
w: neu\- * * * es|Lied,||||sin-|get,||sin- get,|sin-|get,||
 d4 d4 e4 | f8 d4 | (_e6 d2 Td2 c2 | d6 c2 Tc2 B2 | c6 B2 TB2 A2 | B4) A4 G4 | A4 A4 B4 | c8 G4 | %30
w: sin- get dem|Her- ren|al\- * * *|||* le Welt,|sin- get dem|Her- ren|
 B4 A8 | B8 z4 | c4 c4 d4 | _e8 c4 | (d6 c2 Tc2 B2 | c6 B2 TB2 A2 | B6 A2 TA2 G2 | A4) G8 | F8 z4 | %39
w: al- le|Welt,|sin- get dem|Her- ren|al\- * * *|||* le|Welt,|
 c4 c4 d4 | _e8 c4 | (d6 c2 Tc2 B2 | c6 B2 TB2 A2 | B4) A8 | G4 (d2 c2 Tc2 B2 | c6 B2 TB2 A2 | %46
w: sin- get dem|Her- ren|al\- * * *||* le|Welt, al\- * * *||
 B4) A8 | G12 ||[M:4/4] z2 (d2- d/B/c/A/ B/G/A/F/ |[M:4/4] G/D/E/F/ G/A/B/c/ d2) cB | A4 z AA=B | %51
w: * ie|Welt.|Sin\- * * * * * * * *|* * * * * * * * * get dem|Herrn und lo- bet|
 ^c2 d2 (d3 c) | d4 z4 | z8 | z8 | z2 (c2- c/A/B/G/ A/F/G/E/ | F/C/D/E/ F/G/A/B/) c2 BA | %57
w: sei- nen Na\- *|men,|||sin\- * * * * * * * *|* * * * * * * * * get dem|
 G2 z2 z4 | z/ (D/E/^F/ G/A/B/c/ d2) cB | A2 z2 z4 | z AAB c2 A2 | (B>c d4 ^c2) | d4 z AAB | %63
w: Herrn,|sin\- * * * * * * * get dem|Herrn|und lo- bet sei- nen|Na\- * * *|men, und lo- bet|
 c2 B2 A4 | G8 ||[M:3/2] d6 B2 G4 | c6 A2 F4 | G2 G2 c4 A4 | =B2 B2 z4 z4 |[M:3/2] z12 | z12 | %71
w: sei- nen Na-|men.|Pre- di- get,|pre- di- get|ei- nen Tag am|an- dern,|||
 F2 F2 B4 G4 | A2 A2 z4 z4 | G2 G2 c4 A4 | =B2 B2 z4 z4 | A2 A2 d4 =B4 | c2 c2 z4 z4 | %77
w: ei- nen Tag am|an- dern,|ei- nen Tag am|an- dern,|ei- nen Tag am|an- dern,|
 c2 c2 f4 d2 d2 | _e4 c4 d2 d2 ||[M:4/4]"^tarde" z2 cc d2 B2 | c4 B4 |[M:4/4] A8 | G8 || %83
w: ei- nen Tag, ei- nen|Tag am an dern,|ei- nen Tag am|an- dern|sein|Heil.|
 z2 F2 (GABc | d2 z A Bcde | f2) c2 c2 c>B | c4 c2 d2- | d2 G2 G4 | A4 A^FFD | D2 D2 GEEC | %90
w: Er- zäh\- * * *||* let un- ter den|Hei- den sei\-|* ne Eh-|re, un- ter al- len|Völ- kern, un- ter al- len|
 C2 C2 z2 F2- | F2 E2 G4 | E8 | z2 D2 (EFGA | B2 z ^F GABc | d2) A2 A2 A>G | (A3 B/c/) A4 | %97
w: Völ- kern sei\-|* ne Wun-|der,|er- zäh\- * * *||* let un- ter den|Hei\- * * den|
 z2 c4 F2 | G8 | F8 | GEEC C2 C2 | cAAF F2 F2 | z4 dBBG | G2 G2 z2 G2- | G2 G2 F4 | E4 z4 | %106
w: sei- ne|Eh-|re,|un- ter al- len Völ- kern,|un- ter al- len Völ- kern,|un- ter al- len|Völ- kern sei\-|* ne Wun-|der.|
 DDEE F2 z2 | EE^FF G2 z2 | =FFGG A2 z A | cB A2 G2 z G | BAGG FFGG | AA=BB c2 z A | %112
w: Denn der Herr ist gross,|denn der Herr ist gross,|denn der Herr ist gross und|hoch zu lo- ben, und|hoch zu lo- ben, denn der Herr ist|gross, der Herr ist gross und|
 c!courtesy!_B A2 G=Bcc | d2 z2 z2 z A | cB A2 G2 z2 | ddBB ccAA | _edcB ccBA | GB A2 B2 z2 | %118
w: hoch zu lo- ben, der Herr ist|gross und|hoch zu lo- ben,|wun- der- bar- lich, wun- der- bar- lich|ü- ber al le Göt- ter, ü- ber|al- le Göt- ter,|
 AA^FF GGEE | z2 dd BBcc | AA z2 z2 ff | dd_ee ccdd | cB A2 B2 z2 | AAdd d2 ^c2 | dd=BB eecc | %125
w: wun- der- bar- lich, wun der- bar- lich,|wun- der- bar- lich, wun- der-|bar- lich, wun- der-|bar- lich, wun- der- bar- lich ü- ber|al- le Göt- ter,|ü- ber al- le Göt- ter,|wun- der- bar- lich, wun- der- bar- lich,|
 ffdd cBAA | G4 F2 z2 | BBGG ccAA | dcBB A2 A2 | dd=BB eecc | dcBB A2 A2 | BBGG ccAA | dcBB A4 | %133
w: wun- der- bar- lich ü- ber al- le|Göt- ter,|wun- der- bar- lich, wun- der- bar- lich|ü- ber al- le Göt- ter,|wun- der- bar- lich, wun- der- bar- lich|ü- ber al le Göt- ter,|wun- der- bar- lich, wun- der- bar- lich|ü- ber al le Göt-|
 G4 z4 | dd=BB ddGG | cd_ed c4 | !fermata!=B16 |] %137
w: ter,|wun- der- bar- lich, wun- der- bar- lich|ü- ber al- le Göt-|ter.|
V:4
 G,,12 | G,,12 | G,,12 | G,,12 | G,,12 | G,,12 | G,,12 | G,,12 | G,8 ^F,4 | G,6 F,2 _E,4 | %10
w: ||||||||||
 C,4- C,4 D,4 | G,,8 ^F,4 | G,6 F,2 _E,4 | C,8 D,4 | G,,12 | G,,12 | G,,12 | G,,12 | G,,12 | %19
w: 6 5 *|||||||||
 G,,12 | G,,12 | G,,12 | x8- x4 | D,12 | C,12 | B,,12 | F,12 | _E,12 | x8- x4 | C,12 | B,,4 F,8 | %31
w: |||5||||||5|||
 B,,12 | F,,12 | C,12 | B,,12 | A,,12 | G,,12 | F,,4 C,8 | F,,12 | F,12 | C,12 | B,,12 | A,,12 | %43
w: ||||||||||||
 G,,4 D,8 | G,,12 | F,,12 | G,,4 D,8 | G,,12 ||[M:4/4] G,,8- |[M:4/4] G,,8 | D,8 | %51
w: ||||||||
 A,,2 G,,2 x2- x2 | D,8 | D,2 E,2 F,2 G,2 | A,4 G,2 F,2 | x2- x2 F,4 | F,,8 | C,8 | x4- x4 | %59
w: * * 4|||* 6 *|4 *||||
 D,4 D,4 | A,,4 A,,4 | x2- x2 x2- x2 | D,8 | x2- x2 x2- x2 | G,,8 ||[M:3/2] B,6 G,2 E,4 | %66
w: ||6 4||6 4|||
 A,6 F,2 D,4 | x4- x2 C,2 D,4 | G,6 E,2 C,4 |[M:3/2] F,6 D,2 B,,4 | _E,4 C,4 F,4 | B,,4 G,,4 C,4 | %72
w: |5 * *|||||
 F,4 D,4 G,4 | C,4 A,,4 D,4 | G,4 E,4 A,4 | D,4 =B,,4 G,,2 G,2 | E,4 C,2 C2 A,4 | %77
w: |||* 6 * *|6 * * 6|
 F,4 D,4 B,,2 B,2 | _E,4 F,4 B,,2 B,,2 ||[M:4/4] F,4 B,,2 _E,2 | C,2 D,2 _E,2 C,2 |[M:4/4] x4- x4 | %82
w: * 6 * *|||* * * 7|4|
 G,,8 || B,,8- | B,,8 | x4- x4 | F,4- x2 x2 | x4- x4 | D,8 | =B,,4 C,4 | A,,4 F,,4 | x2- x2 x2 x2 | %92
w: |||5||7||||7|
 C,8 | G,,8- | G,,8 | x2- x4 x2 | D,8 | E,4 F,2 D,2 | C,2 B,,2 x2- x2 | F,,8 | C,6 A,,2 | %101
w: |||8||6 * 6|* * 4|||
 F,,6 D,2 | B,,6 G,2 | _E,6 C,2 | G,2 _E,2 x2- x2 | C,4 _E,2 C,2 | B,,2 C,2 F,2 D,2 | %107
w: |||* 6 7|* 6 *|* * * 6|
 C,2 A,,2 G,2 E,2 | D,2 B,,2 A,,2 F,2 | E,2 F,2 C,2 E,2 | G,F, E,2 D,2 E,2 | F,E, D,2 C,2 F,2 | %112
w: * 6 * 6|* 6 * 6|6 * * 6|* * 6 * 6|* * 6 * *|
 C,2 D,2 G,2 E,2 | D,2 B,2 A,2 D,2 | x-x D,2 G,,2 ^F,2 | G,4 F,4 | _E,2 G,2 F,2 B,2 | %117
w: |* 6 * *|6 * * *||* 6 * *|
 _E,2 F,2 B,2 G,2 | A,2 D,2 G,2 C,2 | F,2 B,,2 _E,2 C,2 | D,2 G,,2 C,2 F,,2 | %121
w: ||* * * 6||
 B,,2 _E,,2 F,,2 B,,2 | _E,2 F,2 B,2 G,2 | A,2 F,2 G,2 A,2 | D,2 G,2 E,2 A,2 | D,2 G,2 C,2 F,2 | %126
w: ||* 6 * *|||
 B,,2 C,2 F,,2 F,2 | B,,2 _E,2 C,2 D,2 | G,,2 B,,2 C,2 D,2 | G,,2 G,2 E,2 A,2 | D,2 G,2 C,2 F,2 | %131
w: ||* 6 6 *|||
 B,,2 _E,2 A,,2 D,2 | G,,4 x2- x2 |"^www.kantoreiarchiv.de" G,,8 | %134
w: |* 4||
 =B,,2"^SWV 342 p. 9" _E,2 B,,2 E,2 | C,3"^www.kreuznacherdiakonie.de" =B,, C,4 | !fermata!G,,16 |] %137
w: |||

